dist/svg/link.svg

<svg width="16" height="16" viewBox="0 0 16 16" fill="rgb(34, 34, 34)" xmlns="http://www.w3.org/2000/svg"><title>link</title><path d="M13.9 7.49998L12.4 8.99998H10.3L12.9 6.39998C13.8 5.49998 13.8 4.09998 12.9 3.19998C12 2.29998 10.6 2.29998 9.70001 3.19998L7.00001 5.79998V3.59998L8.50001 2.09998C10 0.599976 12.4 0.599976 13.9 2.09998C15.4 3.59998 15.4 5.99998 13.9 7.49998ZM6.40001 12.8C5.50001 13.7 4.10001 13.7 3.20001 12.8C2.30001 11.9 2.30001 10.5 3.20001 9.59998L5.80001 6.99998H3.60001L2.10001 8.49998C0.600006 9.99998 0.600006 12.4 2.10001 13.9C3.60001 15.4 6.00001 15.4 7.40001 13.9L9.00001 12.4V10.3L6.40001 12.8ZM5.10001 12L12 5.09998L10.9 3.99998L4.00001 10.9L5.10001 12Z" fill="rgb(34, 34, 34)" fill-opacity="1.00"/></svg>

<!-- Generated by Trend Micro Style Portal -->
<svg version="1.1" xmlns="http://www.w3.org/2000/svg" width="16" height="16" viewBox="0 0 16 16">
  <title>link</title>
  <path fill="rgb(34,34,34)" d="M13.9 7.5l-1.5 1.5h-2.1l2.6-2.6c0.9-0.9 0.9-2.3 0-3.2s-2.3-0.9-3.2 0v0l-2.7 2.6v-2.2l1.5-1.5c1.5-1.5 3.9-1.5 5.4 0s1.5 3.9 0 5.4v0zM6.4 12.8c-0.9 0.9-2.3 0.9-3.2 0s-0.9-2.3 0-3.2l2.6-2.6h-2.2l-1.5 1.5c-1.5 1.5-1.5 3.9 0 5.4s3.9 1.5 5.3 0l1.6-1.5v-2.1l-2.6 2.5zM5.1 12l6.9-6.9-1.1-1.1-6.9 6.9 1.1 1.1z"></path>
</svg>
